icons/verified-24.svg

<svg xmlns="http://www.w3.org/2000/svg" width="24" height="24" viewBox="0 0 24 24"><path d="M17.03 9.78a.75.75 0 00-1.06-1.06l-5.47 5.47-2.47-2.47a.75.75 0 00-1.06 1.06l3 3a.75.75 0 001.06 0l6-6z"/><path d="M14.136 1.2l1.375 1.01c.274.201.593.333.929.384l1.687.259a3.61 3.61 0 013.02 3.021l.259 1.686c.051.336.183.655.384.929l1.01 1.375a3.61 3.61 0 010 4.272l-1.01 1.375a2.106 2.106 0 00-.384.929l-.259 1.687a3.61 3.61 0 01-3.021 3.02l-1.686.259a2.106 2.106 0 00-.929.384l-1.375 1.01a3.61 3.61 0 01-4.272 0l-1.375-1.01a2.106 2.106 0 00-.929-.384l-1.687-.259a3.61 3.61 0 01-3.02-3.021l-.259-1.686a2.117 2.117 0 00-.384-.929L1.2 14.136a3.61 3.61 0 010-4.272l1.01-1.375c.201-.274.333-.593.384-.929l.259-1.687a3.61 3.61 0 013.021-3.02l1.686-.259c.336-.051.655-.183.929-.384L9.864 1.2a3.61 3.61 0 014.272 0zm-3.384 1.209l-1.375 1.01a3.614 3.614 0 01-1.59.658l-1.686.258a2.111 2.111 0 00-1.766 1.766l-.258 1.686a3.61 3.61 0 01-.658 1.589l-1.01 1.376a2.11 2.11 0 000 2.496l1.01 1.375c.344.469.57 1.015.658 1.59l.258 1.686c.14.911.855 1.626 1.766 1.766l1.686.258a3.61 3.61 0 011.589.658l1.376 1.01a2.11 2.11 0 002.496 0l1.375-1.01a3.613 3.613 0 011.59-.657l1.686-.26a2.11 2.11 0 001.766-1.765l.258-1.686a3.61 3.61 0 01.658-1.589l1.01-1.376a2.11 2.11 0 000-2.496l-1.01-1.375a3.613 3.613 0 01-.657-1.59l-.26-1.686a2.11 2.11 0 00-1.765-1.766l-1.686-.258a3.61 3.61 0 01-1.589-.658l-1.376-1.01a2.11 2.11 0 00-2.496 0z"/></svg>

<svg xmlns="http://www.w3.org/2000/svg" width="24" height="24" viewBox="0 0 24 24">
  <defs/>
  <path d="M17.03,9.78 A0.75 0.75 0 0 0 15.97,8.72 L10.5,14.19 L8.03,11.72 A0.75 0.75 0 0 0 6.97,12.78 L9.97,15.78 A0.75 0.75 0 0 0 11.03,15.78 L17.03,9.78 Z"/>
  <path d="M14.136,1.2 L15.511,2.21 C15.785,2.411 16.104,2.543 16.44,2.594 L18.127,2.853 C19.685,3.092 20.908,4.316 21.147,5.874 L21.406,7.56 C21.457,7.896 21.589,8.215 21.79,8.489 L22.8,9.864 C23.733,11.135 23.733,12.865 22.8,14.136 L21.79,15.511 C21.589,15.785 21.457,16.104 21.406,16.44 L21.147,18.127 C20.908,19.685 19.684,20.908 18.126,21.147 L16.44,21.406 C16.104,21.457 15.785,21.589 15.511,21.79 L14.136,22.8 C12.865,23.733 11.135,23.733 9.864,22.8 L8.489,21.79 C8.215,21.589 7.896,21.457 7.56,21.406 L5.873,21.147 C4.315,20.908 3.092,19.684 2.853,18.126 L2.594,16.44 C2.543,16.104 2.41,15.785 2.21,15.511 L1.2,14.136 C0.267,12.865 0.267,11.135 1.2,9.864 L2.21,8.489 C2.411,8.215 2.543,7.896 2.594,7.56 L2.853,5.873 C3.092,4.315 4.316,3.092 5.874,2.853 L7.56,2.594 C7.896,2.543 8.215,2.411 8.489,2.21 L9.864,1.2 C11.135,0.267 12.865,0.267 14.136,1.2 Z M10.752,2.409 L9.377,3.419 C8.908,3.763 8.362,3.989 7.787,4.077 L6.101,4.335 C5.19,4.475 4.475,5.19 4.335,6.101 L4.077,7.787 C3.989,8.362 3.763,8.907 3.419,9.376 L2.409,10.752 C1.864,11.495 1.864,12.505 2.409,13.248 L3.419,14.623 C3.763,15.092 3.989,15.638 4.077,16.213 L4.335,17.899 C4.475,18.81 5.19,19.525 6.101,19.665 L7.787,19.923 C8.362,20.011 8.907,20.237 9.376,20.581 L10.752,21.591 C11.495,22.136 12.505,22.136 13.248,21.591 L14.623,20.581 C15.092,20.237 15.638,20.012 16.213,19.924 L17.899,19.664 C18.81,19.524 19.525,18.81 19.665,17.899 L19.923,16.213 C20.011,15.638 20.237,15.093 20.581,14.624 L21.591,13.248 C22.136,12.505 22.136,11.495 21.591,10.752 L20.581,9.377 C20.237,8.908 20.012,8.362 19.924,7.787 L19.664,6.101 C19.524,5.19 18.81,4.475 17.899,4.335 L16.213,4.077 C15.638,3.989 15.093,3.763 14.624,3.419 L13.248,2.409 C12.505,1.864 11.495,1.864 10.752,2.409 Z"/>
</svg>
